src/icons/SVG/64px/Universe_WoodSaw_64px.svg

<svg width="64" height="64" viewBox="0 0 64 64" fill="none" xmlns="http://www.w3.org/2000/svg">
<g id="Square"> </g>
<g id="Icon">
<path id="Union" fill-rule="evenodd" clip-rule="evenodd" d="M8.4259 43.7391C7.84011 44.3249 7.84011 45.2747 8.42589 45.8605L19.7396 57.1742C20.3254 57.76 21.2751 57.76 21.8609 57.1742L28.3493 50.6858C28.7224 50.984 29.2192 51.0887 29.6859 50.9594C30.2067 50.8152 30.6097 50.4019 30.7408 49.8777L32.412 43.1925L37.8829 41.7314C38.5266 41.5595 38.9798 40.9835 38.9954 40.3175L39.1271 34.7192L43.3196 33.4267C43.9691 33.2265 44.4029 32.6145 44.3766 31.9353L44.1506 26.0927L48.5655 25.1729C49.2715 25.0258 49.7729 24.3972 49.7593 23.6762L49.6615 18.494L54.1637 16.8217C54.6426 16.6439 54.998 16.2345 55.1069 15.7354C55.2159 15.2364 55.0633 14.7161 54.7021 14.3549L47.3168 6.9696C46.731 6.38381 45.7812 6.38381 45.1954 6.9696L15.9684 36.1967L8.4259 43.7391ZM29.7159 41.6076L28.4729 46.5799L23.5108 41.6178L33.7639 31.3648C34.1544 30.9743 34.1544 30.3411 33.7639 29.9506C33.3734 29.56 32.7402 29.56 32.3497 29.9506L22.0966 40.2036L19.1503 37.2573L46.2561 10.1516L50.9279 14.8234L47.6194 16.0522C47.022 16.2741 46.63 16.8494 46.642 17.4866L46.7364 22.4896L42.2968 23.4145C41.5798 23.5639 41.0755 24.2091 41.1038 24.9409L41.3343 30.8995L37.2111 32.1705C36.5945 32.3606 36.1686 32.9236 36.1534 33.5687L36.0227 39.123L30.7841 40.5222C30.2572 40.6629 29.8482 41.0785 29.7159 41.6076ZM17.029 39.3787L26.2214 48.571L20.8003 53.9922L11.6079 44.7998L17.029 39.3787ZM18.2075 44.5641C17.817 44.1736 17.1838 44.1736 16.7933 44.5641C16.4028 44.9546 16.4028 45.5878 16.7933 45.9783L19.6218 48.8067C20.0123 49.1973 20.6454 49.1973 21.036 48.8067C21.4265 48.4162 21.4265 47.7831 21.036 47.3925L18.2075 44.5641Z" fill="black"/>
</g>
</svg>

<svg xmlns="http://www.w3.org/2000/svg" viewBox="0 0 64 64">
  <g id="Square"> </g>
  <path fill-rule="evenodd" d="M8.426 43.74a1.5 1.5 0 000 2.12L19.74 57.175a1.5 1.5 0 002.12 0l6.49-6.488a1.5 1.5 0 002.39-.808l1.672-6.685 5.47-1.462a1.5 1.5 0 001.113-1.413l.132-5.599 4.193-1.292a1.5 1.5 0 001.057-1.492l-.226-5.842 4.414-.92a1.5 1.5 0 001.194-1.497l-.098-5.182 4.503-1.672a1.5 1.5 0 00.538-2.467L47.317 6.97a1.5 1.5 0 00-2.122 0L15.968 36.197l-7.542 7.542zm21.29-2.132l-1.243 4.972-4.962-4.962 10.253-10.253a1 1 0 00-1.414-1.414L22.097 40.204l-2.947-2.947 27.106-27.105 4.672 4.671-3.309 1.23a1.5 1.5 0 00-.977 1.434l.094 5.003-4.44.925a1.5 1.5 0 00-1.192 1.526l.23 5.959-4.123 1.27a1.5 1.5 0 00-1.058 1.399l-.13 5.554-5.239 1.4a1.5 1.5 0 00-1.068 1.085zm-12.687-2.23l9.192 9.193-5.42 5.421-9.193-9.192 5.421-5.421zm1.178 5.186a1 1 0 00-1.414 1.414l2.829 2.829a1 1 0 101.414-1.415l-2.829-2.828z"/>
</svg>
